X:1
T:[ID 11-21a]
T:[ID 11-21a]
T:Bezeichnung standardisiert: Nro 1 Nro 1
T:Urheber unbekannt Datum in der hier transkribierten schriftlichen Quelle: vermutlich um 1800
C:Urheber unbekannt
C:Datum in der hier transkribierten schriftlichen Quelle: vermutlich um 1800
L:1/8
M:3/4
K:Bb
V:1 treble 
V:1
 fg | f2 eFce | B2 dFBd | c2 eFce | B2 dFfg | f2 eFce | B2 dFBd | c2 eFce | d4 :: Bd | c2 eFce | %11
 B2 dFBd | c2 eFce | defgab | f2 eFce | B2 dFBd | c2 eFce | B4 :| %18

